X: 32218
T: Phillibelula All The Way
R: hornpipe
M: 4/4
K: Dmajor
|:f>e|d>cd>B A2G>F|E>EF>G A2B>c|d>BA>B d>de>c|d6:|
d>e|f2f2 f2g>f|g>fe2 e4|d2d2 d2e>d|c>BA2 A2B>c|
(3ded (3cBA B>cd2|(3ded (3cBA B>c d>f|e2(3efg a2(3ABc|d2 f2 d2||

